svgs/solid/bars-filter.svg

<svg xmlns="http://www.w3.org/2000/svg" viewBox="0 0 448 512"><!--! Font Awesome Pro 6.4.2 by @fontawesome - https://fontawesome.com License - https://fontawesome.com/license (Commercial License) Copyright 2023 Fonticons, Inc. --><path d="M0 96C0 78.3 14.3 64 32 64H416c17.7 0 32 14.3 32 32s-14.3 32-32 32H32C14.3 128 0 113.7 0 96zM64 256c0-17.7 14.3-32 32-32H352c17.7 0 32 14.3 32 32s-14.3 32-32 32H96c-17.7 0-32-14.3-32-32zM288 416c0 17.7-14.3 32-32 32H192c-17.7 0-32-14.3-32-32s14.3-32 32-32h64c17.7 0 32 14.3 32 32z"/></svg>

<svg xmlns="http://www.w3.org/2000/svg" viewBox="0 0 448 512"><!--! Font Awesome Pro 6.1.1 by @fontawesome - https://fontawesome.com License - https://fontawesome.com/license (Commercial License) Copyright 2022 Fonticons, Inc. --><path d="M0 96C0 78.33 14.33 64 32 64H416C433.7 64 448 78.33 448 96C448 113.7 433.7 128 416 128H32C14.33 128 0 113.7 0 96zM64 256C64 238.3 78.33 224 96 224H352C369.7 224 384 238.3 384 256C384 273.7 369.7 288 352 288H96C78.33 288 64 273.7 64 256zM256 448H192C174.3 448 160 433.7 160 416C160 398.3 174.3 384 192 384H256C273.7 384 288 398.3 288 416C288 433.7 273.7 448 256 448z"/></svg>
